icons/svg/seamark/buoy_yellow_spar.svg

<?xml version="1.0" encoding="UTF-8" standalone="no"?>
<svg
   xmlns:dc="http://purl.org/dc/elements/1.1/"
   xmlns:cc="http://creativecommons.org/ns#"
   xmlns:rdf="http://www.w3.org/1999/02/22-rdf-syntax-ns#"
   xmlns:svg="http://www.w3.org/2000/svg"
   xmlns="http://www.w3.org/2000/svg"
   xmlns:sodipodi="http://sodipodi.sourceforge.net/DTD/sodipodi-0.dtd"
   xmlns:inkscape="http://www.inkscape.org/namespaces/inkscape"
   width="580"
   height="580"
   id="svg2"
   version="1.1"
   inkscape:version="0.48.4 r9939"
   sodipodi:docname="buoy_yellow_spar.svg">
  <defs
     id="defs13">
    <inkscape:path-effect
       effect="gears"
       id="path-effect3774"
       is_visible="true"
       teeth="6"
       phi="-1.2" />
    <inkscape:path-effect
       effect="bend_path"
       id="path-effect3772"
       is_visible="false"
       bendpath="m 95.790098,316.51174 c 144.429032,-206.42506 223.313032,-11.7428 339.548092,0"
       prop_scale="1.19"
       scale_y_rel="false"
       vertical="false"
       bendpath-nodetypes="cc" />
  </defs>
  <sodipodi:namedview
     pagecolor="#ffffff"
     bordercolor="#666666"
     borderopacity="1"
     objecttolerance="10"
     gridtolerance="10"
     guidetolerance="10"
     inkscape:pageopacity="0"
     inkscape:pageshadow="2"
     inkscape:window-width="1920"
     inkscape:window-height="1004"
     id="namedview11"
     showgrid="false"
     inkscape:zoom="1.1508772"
     inkscape:cx="476.02403"
     inkscape:cy="221.60869"
     inkscape:window-x="1680"
     inkscape:window-y="0"
     inkscape:window-maximized="1"
     inkscape:current-layer="svg2"
     inkscape:snap-object-midpoints="true"
     inkscape:snap-bbox="true" />
  <metadata
     id="metadata2975">image/svg+xmlen<rdf:RDF>
  <cc:Work
     rdf:about="">
    <dc:format>image/svg+xml</dc:format>
    <dc:type
       rdf:resource="http://purl.org/dc/dcmitype/StillImage" />
    <dc:title />
  </cc:Work>
</rdf:RDF>
</metadata>
  <path
     style="opacity:0.42608696;color:#000000;fill:#8d8d8d;fill-opacity:1;fill-rule:nonzero;stroke:#a35151;stroke-width:0;stroke-linecap:round;stroke-linejoin:miter;stroke-miterlimit:4;stroke-opacity:1;stroke-dashoffset:0;marker:none;visibility:visible;display:inline;overflow:visible;enable-background:accumulate"
     d="m 281.21875,179.875 c -4.45239,-0.0126 -8.89409,1.53296 -12.37686,4.3068 -3.48278,2.77385 -5.98299,6.75712 -6.96689,11.09945 l -65.40625,289.1875 -31.98345,0 c -3.42431,-0.001 -6.82784,2.13028 -9.24919,5.79243 -2.42135,3.66214 -3.83067,8.80977 -3.82986,13.98882 l 0,25 c -8.1e-4,5.17905 1.40851,10.32668 3.82986,13.98882 2.42135,3.66215 5.82488,5.79365 9.24919,5.79243 l 64.23345,0 c 11.16031,18.6393 31.39456,31.21875 54.5,31.21875 14.45486,0 27.97506,-4.95915 38.6875,-13.1875 0.17144,-0.12644 0.0461,-0.0493 0.1875,-0.15625 0.10487,-0.0793 0.0677,-0.0254 0.15625,-0.0937 0.0458,-0.0357 0.0177,-0.0276 0.0625,-0.0625 0.56622,-0.44119 1.19887,-0.93753 1,-0.78125 5.97129,-4.69243 10.84693,-10.53265 14.625,-16.9375 l 57.17171,0 c 3.42431,0.001 6.82785,-2.13029 9.2492,-5.79245 2.42136,-3.66215 3.83067,-8.80979 3.82985,-13.98885 l 0,-25 c 8.1e-4,-5.17905 -1.40851,-10.32668 -3.82986,-13.98882 -2.42135,-3.66215 -5.82488,-5.79365 -9.24919,-5.79243 l -17.76546,0 53,-254.03125 c 1.059,-5.07259 0.0213,-10.55019 -2.81965,-14.88395 -2.84096,-4.33377 -7.45009,-7.47015 -12.5241,-8.5223 l -36.25,-7.5 c -0.16639,-0.023 -0.33308,-0.0438 -0.5,-0.0625 l -93.09375,-19.1875 c -1.29453,-0.26654 -2.61582,-0.40286 -3.9375,-0.40625 z"
     id="path3041"
     inkscape:connector-curvature="0"
     sodipodi:nodetypes="cscccsccsccscccccccsccscccsccccc" />
  <path
     style="color:#000000;fill:#ffd400;fill-opacity:1;fill-rule:nonzero;stroke:none;stroke-width:0;marker:none;visibility:visible;display:inline;overflow:visible;enable-background:accumulate"
     d="m 410.97285,226.22624 -129.82798,-26.7617 -70.64122,312.39507 30.7911,7.74094 c 3.23822,20.95032 11.76658,36.96237 42.40484,40.29298 27.04122,-2.11225 40.39227,-17.7997 44.13615,-41.57373 l 24.9504,-13.237 z"
     id="path3822-3"
     inkscape:connector-curvature="0"
     sodipodi:nodetypes="cccccccc" />
  <path
     style="opacity:0.42608696;color:#000000;fill:#000000;fill-opacity:1;fill-rule:nonzero;stroke:#a35151;stroke-width:0;stroke-linecap:round;stroke-linejoin:miter;stroke-miterlimit:4;stroke-opacity:1;stroke-dashoffset:0;marker:none;visibility:visible;display:inline;overflow:visible;enable-background:accumulate"
     d="m 374.74637,218.70929 36.2299,7.51844 -58.08519,278.43859 -37.74995,0.85485 z"
     id="rect3050"
     inkscape:connector-curvature="0"
     sodipodi:nodetypes="ccccc" />
  <path
     style="fill:none;stroke:#000000;stroke-width:25;stroke-linecap:butt;stroke-linejoin:miter;stroke-miterlimit:4;stroke-opacity:1;stroke-dasharray:none"
     d="m 173.55821,516.57012 214.88358,0"
     id="path3759"
     inkscape:connector-curvature="0" />
  <path
     sodipodi:type="arc"
     style="color:#000000;fill:#fefefe;fill-opacity:1;stroke:#000000;stroke-width:25;stroke-linecap:round;stroke-linejoin:round;stroke-miterlimit:10;stroke-opacity:1;stroke-dasharray:none;stroke-dashoffset:0;marker:none;visibility:visible;display:inline;overflow:visible;enable-background:accumulate"
     id="path3759-1"
     sodipodi:cx="210.27438"
     sodipodi:cy="76.036606"
     sodipodi:rx="40.838413"
     sodipodi:ry="40.838413"
     d="m 251.1128,76.036606 a 40.838413,40.838413 0 1 1 -81.67683,0 40.838413,40.838413 0 1 1 81.67683,0 z"
     transform="matrix(0.82289092,0,0,0.82289092,110.16458,453.8318)" />
</svg>

<svg width="580" height="580" viewBox="0 0 580 580" fill="none" xmlns="http://www.w3.org/2000/svg">
<g clip-path="url(#clip0)">
<path opacity="0.426087" d="M281.219 179.875C276.766 179.862 272.325 181.408 268.842 184.182C265.359 186.956 262.859 190.939 261.875 195.281L196.469 484.469H164.485C161.061 484.468 157.657 486.599 155.236 490.261C152.815 493.923 151.405 499.071 151.406 504.25V529.25C151.405 534.429 152.815 539.577 155.236 543.239C157.657 546.901 161.061 549.033 164.485 549.031H228.719C239.879 567.671 260.113 580.25 283.219 580.25C297.674 580.25 311.194 575.291 321.906 567.063C322.078 566.936 321.952 567.013 322.094 566.906C322.199 566.827 322.161 566.881 322.25 566.813C322.296 566.777 322.268 566.785 322.312 566.75C322.879 566.309 323.511 565.813 323.312 565.969C329.284 561.276 334.159 555.436 337.938 549.031H395.109C398.534 549.032 401.937 546.901 404.358 543.239C406.78 539.577 408.189 534.429 408.188 529.25V504.25C408.189 499.071 406.78 493.923 404.358 490.261C401.937 486.599 398.534 484.468 395.109 484.469H377.344L430.344 230.438C431.403 225.365 430.365 219.887 427.524 215.554C424.683 211.22 420.074 208.083 415 207.031L378.75 199.531C378.584 199.508 378.417 199.488 378.25 199.469L285.156 180.281C283.862 180.015 282.54 179.878 281.219 179.875Z" fill="#8D8D8D"/>
<path d="M410.973 226.226L281.145 199.464L210.503 511.859L241.295 519.6C244.533 540.551 253.061 556.563 283.699 559.893C310.741 557.781 324.092 542.094 327.836 518.32L352.786 505.083L410.973 226.226Z" fill="#FFD400"/>
<path opacity="0.426087" d="M374.746 218.709L410.976 226.228L352.891 504.667L315.141 505.521L374.746 218.709Z" fill="black"/>
<path d="M173.558 516.57H388.442" stroke="black" stroke-width="25"/>
<path d="M316.803 516.401C316.803 525.314 313.262 533.862 306.96 540.164C300.658 546.466 292.11 550.007 283.197 550.007C274.285 550.007 265.737 546.466 259.435 540.164C253.132 533.862 249.592 525.314 249.592 516.401C249.592 507.489 253.132 498.941 259.435 492.639C265.737 486.336 274.285 482.796 283.197 482.796C292.11 482.796 300.658 486.336 306.96 492.639C313.262 498.941 316.803 507.489 316.803 516.401V516.401Z" fill="#FEFEFE" stroke="black" stroke-width="20.5723" stroke-miterlimit="10" stroke-linecap="round" stroke-linejoin="round"/>
</g>
<defs>
<clipPath id="clip0">
<path d="M0 0H580V580H0V0Z" fill="white"/>
</clipPath>
</defs>
</svg>
